src/lib/packages/icons/src/assets/filled/grid-web-7.svg

<svg xmlns="http://www.w3.org/2000/svg" width="24" height="24" fill="none"><path fill="currentColor" d="M8.5 12h-3c-1 0-1.5-.5-1.5-1.5v-5C4 4.5 4.5 4 5.5 4h3c1 0 1.5.5 1.5 1.5v5c0 1-.5 1.5-1.5 1.5Zm1.5 6.5v-1c0-1-.5-1.5-1.5-1.5h-3c-1 0-1.5.5-1.5 1.5v1c0 1 .5 1.5 1.5 1.5h3c1 0 1.5-.5 1.5-1.5Zm4-5v5c0 1 .5 1.5 1.5 1.5h3c1 0 1.5-.5 1.5-1.5v-5c0-1-.5-1.5-1.5-1.5h-3c-1 0-1.5.5-1.5 1.5Zm0-8v1c0 1 .5 1.5 1.5 1.5h3c1 0 1.5-.5 1.5-1.5v-1c0-1-.5-1.5-1.5-1.5h-3c-1 0-1.5.5-1.5 1.5Z"/></svg>

<svg width="24" height="24" viewBox="0 0 24 24" fill="none" xmlns="http://www.w3.org/2000/svg">
<path d="M8.5 12H5.5C4.5 12 4 11.5 4 10.5V5.5C4 4.5 4.5 4 5.5 4H8.5C9.5 4 10 4.5 10 5.5V10.5C10 11.5 9.5 12 8.5 12ZM10 18.5V17.5C10 16.5 9.5 16 8.5 16H5.5C4.5 16 4 16.5 4 17.5V18.5C4 19.5 4.5 20 5.5 20H8.5C9.5 20 10 19.5 10 18.5ZM14 13.5V18.5C14 19.5 14.5 20 15.5 20H18.5C19.5 20 20 19.5 20 18.5V13.5C20 12.5 19.5 12 18.5 12H15.5C14.5 12 14 12.5 14 13.5ZM14 5.5V6.5C14 7.5 14.5 8 15.5 8H18.5C19.5 8 20 7.5 20 6.5V5.5C20 4.5 19.5 4 18.5 4H15.5C14.5 4 14 4.5 14 5.5Z" fill="currentColor"/>
</svg>
